_includes/icons/color-code-file.svg

<svg fill="#666" height="50" viewBox="0 0 48 48" width="50" xmlns="http://www.w3.org/2000/svg"><path d="m40 45h-32v-42h22l10 10z" fill="#90caf9"/><path d="m38.5 14h-9.5v-9.5z" fill="#e1f5fe"/><path d="m18.300781 34.699219-6.699218-6.699219 6.699218-6.699219 1.398438 1.398438-5.300781 5.300781 5.300781 5.300781zm18.097657-6.699219-6.699219-6.699219-1.398438 1.398438 5.300782 5.300781-5.300782 5.300781 1.398438 1.398438zm-8.5-11.398437-1.898438-.601563-5.898437 23.398438 1.898437.601562z" fill="#1976d2"/></svg>

<svg xmlns="http://www.w3.org/2000/svg" viewBox="0 0 48 48" width="50" height="50" fill="#666"><path d="M 40 45 L 8 45 L 8 3 L 30 3 L 40 13 Z" fill="#90caf9"/><path d="M 38.5 14 L 29 14 L 29 4.5 Z" fill="#e1f5fe"/><path d="M 18.300781 34.699219 L 11.601563 28 L 18.300781 21.300781 L 19.699219 22.699219 L 14.398438 28 L 19.699219 33.300781 Z M 36.398438 28 L 29.699219 21.300781 L 28.300781 22.699219 L 33.601563 28 L 28.300781 33.300781 L 29.699219 34.699219 Z M 27.898438 16.601563 L 26 16 L 20.101563 39.398438 L 22 40 Z" fill="#1976d2"/></svg>
